packages/ffe-icons/icons/filled/sm/tabs.svg

<svg xmlns="http://www.w3.org/2000/svg" height="20" viewBox="0 -960 960 960" width="20"><path d="M228.309-164.001q-26.308 0-45.308-19t-19-45.308v-503.382q0-27.008 19-45.658 19-18.65 45.308-18.65h503.382q27.008 0 45.658 18.65 18.65 18.65 18.65 45.658v503.382q0 26.308-18.65 45.308t-45.658 19H228.309Zm0-51.999h503.382q4.616 0 8.463-3.846 3.846-3.847 3.846-8.463v-264H216v264q0 4.616 3.846 8.463 3.847 3.846 8.463 3.846ZM660-624q15.3 0 25.65-10.289 10.35-10.29 10.35-25.5Q696-675 685.65-685.5 675.3-696 660-696H492q-15.3 0-25.65 10.289-10.35 10.29-10.35 25.5Q456-645 466.35-634.5 476.7-624 492-624h168Z"/></svg>

<svg xmlns="http://www.w3.org/2000/svg" height="20" viewBox="0 -960 960 960" width="20"><path d="M228.31-164Q202-164 183-183q-19-19-19-45.31v-503.38q0-27.01 19-45.66Q202-796 228.31-796h503.38q27.01 0 45.66 18.65Q796-758.7 796-731.69v503.38Q796-202 777.35-183q-18.65 19-45.66 19H228.31Zm0-52h503.38q4.62 0 8.46-3.85 3.85-3.84 3.85-8.46v-264H216v264q0 4.62 3.85 8.46 3.84 3.85 8.46 3.85ZM660-624q15.3 0 25.65-10.29Q696-644.58 696-659.79t-10.35-25.71Q675.3-696 660-696H492q-15.3 0-25.65 10.29Q456-675.42 456-660.21t10.35 25.71Q476.7-624 492-624h168Z"/></svg>
